X:2131
T:The Crabfish - Y parten 
C:William Cannell, Gardener, Balladoole 
C:Traditional
O:Isle of Man
Z:Clague collection
B:Kiaull Vannin #131 
M:2/4 
L:1/8 
Q:180 
K:G 
dc|Bd d2|d2 d2|ec c2|c2 cB|cc cc|cc cc|d2 A2|B BA| 
G2 GG|A2 AA|BA Bc|d2 dc|B2 BB|A2 AA|G2 G2|G2|| 

